T: Weavers' March, The
M: 4/4
L: 1/8
K: Dmaj
F/G/|:A/B/A/G/ FA d/c/d A2|B/c/d cd gf eF/G/|A/B/A/G/ F/G/A B/c/d/B/ A2|
dd cd/e/ f/e/d/c/ B/A/F/G/:|B/c/d cd/e/ f/e/d/c/ B/c/d/e/||
|:fg/f/ ef/e/ d/f/e/c/ d/c/B/A/|B/c/d cd gf e2|A3G/ F/G/A B/c/d A2|
B/c/d c/d/e e2 dd/e/:|B/c/d c/d/e e2 d2||
